lib/preview/nrk-logo-preview-nrk-p1-pluss-with-bg.svg

<svg width="75" height="24" viewBox="0 0 75 24" fill="none" xmlns="http://www.w3.org/2000/svg">
<rect width="75" height="24" fill="#015F88"/>
<path d="M6.00427 18V6.00109H9.94146V18H6.00427ZM15.2981 7.91078L17.5623 18H13.2534L10.5498 6.00109H12.9664C13.5206 5.9939 14.0583 6.18925 14.4788 6.55039C14.8999 6.89638 15.1892 7.3767 15.2981 7.91078ZM18.1538 18V6.00109H22.091V18H18.1538ZM25.0647 10.5641C24.6405 10.5682 24.223 10.4572 23.8568 10.243C23.4955 10.0341 23.1954 9.73396 22.9865 9.3726C22.7721 9.00633 22.661 8.58876 22.6652 8.16432C22.6604 7.74246 22.7715 7.32738 22.9865 6.96443C23.1976 6.60699 23.4974 6.31009 23.8568 6.10252C24.2231 5.8885 24.6405 5.77751 25.0647 5.78138C25.4865 5.77684 25.9014 5.88793 26.2645 6.10252C26.6203 6.31191 26.9169 6.60856 27.1263 6.96443C27.3411 7.32748 27.4522 7.74249 27.4476 8.16432C27.4515 8.58873 27.3405 9.00623 27.1263 9.3726C26.9191 9.73238 26.6222 10.0323 26.2645 10.243C25.9014 10.458 25.4862 10.5691 25.0642 10.5641H25.0647ZM28.0559 18V6.00109H31.9934V18H28.0559ZM36.978 12.5582C36.9891 12.5699 37.0735 12.7079 37.2314 12.9723C37.3893 13.2367 37.5949 13.5747 37.8482 13.9863C38.1017 14.3977 38.3692 14.8343 38.6506 15.296C38.932 15.7577 39.1969 16.1944 39.4451 16.6058C39.6924 17.0172 39.974 17.4819 40.29 18H35.9641C35.6936 17.5606 35.4484 17.1635 35.2288 16.8086C35.0091 16.4537 34.7756 16.0706 34.5281 15.6594C34.2801 15.2485 34.0349 14.8485 33.7925 14.4595C33.5501 14.0704 33.3418 13.7296 33.1675 13.4371C32.9926 13.1443 32.8714 12.9471 32.8039 12.8455C32.6368 12.5934 32.5379 12.3023 32.517 12.0005C32.5337 11.7109 32.6269 11.431 32.787 11.1891C32.8546 11.0764 32.9786 10.8764 33.1588 10.5891C33.3391 10.3018 33.5503 9.96105 33.7925 9.56672C34.0347 9.17239 34.2799 8.7696 34.5281 8.35837C34.7763 7.94715 35.0098 7.56124 35.2288 7.20071C35.4488 6.84055 35.6939 6.44059 35.9641 6.00081H40.29L36.9439 11.4595C36.8404 11.6216 36.782 11.8083 36.7749 12.0005C36.786 12.2023 36.8565 12.3963 36.9774 12.5582H36.978Z" fill="white"/>
<path d="M52.9962 7.55512C52.7888 7.23465 52.5224 6.95654 52.2114 6.73551C51.8647 6.49242 51.4796 6.30958 51.0722 6.19471C50.5777 6.05802 50.0663 5.99268 49.5533 6.00065H44.8615V17.9995H46.6335V13.69H49.6883C50.3778 13.7006 51.0582 13.5317 51.6629 13.1999C52.2425 12.8786 52.7238 12.4054 53.0553 11.8311C53.4106 11.1973 53.5884 10.4792 53.57 9.75266C53.5715 9.35987 53.5262 8.96832 53.435 8.58629C53.3473 8.22045 53.1989 7.87191 52.9962 7.55512ZM51.4266 11.197C51.1997 11.5534 50.8659 11.8286 50.4731 11.9832C49.9962 12.1637 49.4889 12.2498 48.9792 12.2366H46.6335V7.47092H49.2158C49.709 7.45218 50.1999 7.5476 50.6503 7.74976C51.0086 7.92324 51.3015 8.20769 51.4857 8.56095C51.6807 8.95726 51.7763 9.39524 51.7641 9.83689C51.7835 10.3132 51.6664 10.7852 51.4266 11.197Z" fill="#85E6D6"/>
<path d="M57.1729 6.39775C56.931 6.52732 56.6948 6.64835 56.4644 6.76083C56.2339 6.87331 56.0004 6.98596 55.764 7.09881C55.5277 7.21148 55.2858 7.31318 55.0383 7.40303C54.7908 7.49288 54.5261 7.58357 54.2448 7.67342L54.6164 9.10989C54.9539 9.00849 55.2604 8.9071 55.5359 8.8057C55.806 8.7069 56.0707 8.59406 56.3291 8.46769C56.5826 8.34413 56.8358 8.20904 57.0885 8.06239L57.097 8.05733V18H58.8519V6.00118H57.9408C57.6706 6.13582 57.4146 6.268 57.1729 6.39775Z" fill="#85E6D6"/>
<path d="M65.7212 11.3407V7.92721H64.236V11.3407H60.81V12.6758H64.236V16.0729H65.7212V12.6758H69.1472V11.3407H65.7212Z" fill="#85E6D6"/>
</svg>

<svg xmlns="http://www.w3.org/2000/svg" viewBox="0 0 75 24"><path fill="#015F88" d="M0 0h75v24H0z"/><path fill="#fff" d="M6.004 18V6.001h3.937V18H6.004Zm9.294-10.09L17.562 18h-4.309L10.55 6.001h2.416a2.276 2.276 0 0 1 1.513.55c.42.345.71.826.82 1.36ZM18.154 18V6.001h3.937V18h-3.937Zm6.91-7.436a2.383 2.383 0 0 1-2.4-2.4 2.303 2.303 0 0 1 .323-1.2 2.411 2.411 0 0 1 3.278-.861c.355.209.652.506.861.861.215.363.326.778.322 1.2a2.4 2.4 0 0 1-1.183 2.079 2.302 2.302 0 0 1-1.2.321ZM28.057 18V6.001h3.937V18h-3.937Zm8.922-5.442c.011.012.096.15.253.414.158.265.364.603.617 1.014a315.936 315.936 0 0 1 1.597 2.62c.247.411.529.876.845 1.394h-4.326c-.27-.44-.516-.837-.735-1.191-.22-.355-.453-.738-.7-1.15-.249-.41-.494-.81-.737-1.2-.242-.389-.45-.73-.625-1.022-.174-.293-.296-.49-.363-.591a1.748 1.748 0 0 1-.287-.845c.017-.29.11-.57.27-.812.068-.113.192-.313.372-.6s.391-.628.633-1.022c.243-.395.488-.797.736-1.209l.7-1.157.736-1.2h4.326l-3.346 5.458a1.08 1.08 0 0 0-.17.542c.012.201.082.395.203.557h.001Z"/><path fill="#85E6D6" d="M52.996 7.555a3.016 3.016 0 0 0-.785-.82 3.763 3.763 0 0 0-1.139-.54A5.387 5.387 0 0 0 49.553 6h-4.691v11.998h1.771V13.69h3.055c.69.01 1.37-.158 1.975-.49a3.653 3.653 0 0 0 1.392-1.369 4.041 4.041 0 0 0 .515-2.078 4.942 4.942 0 0 0-.135-1.167 3.372 3.372 0 0 0-.439-1.03Zm-1.57 3.642c-.226.356-.56.632-.953.786-.477.18-.984.267-1.494.254h-2.346V7.47h2.583c.493-.019.984.077 1.434.279.359.173.651.458.836.811.195.396.29.834.278 1.276a2.5 2.5 0 0 1-.337 1.36ZM57.173 6.398c-.242.13-.478.25-.709.363l-.7.338a8.138 8.138 0 0 1-.726.304c-.247.09-.512.18-.793.27l.371 1.437c.338-.102.644-.203.92-.304a8.28 8.28 0 0 0 .793-.338c.254-.124.507-.259.76-.406l.008-.005V18h1.755V6.001h-.911c-.27.135-.526.267-.768.397ZM65.721 11.34V7.928h-1.485v3.414H60.81v1.335h3.426v3.397h1.485v-3.397h3.426V11.34h-3.426Z"/></svg>
